src/assets/icon_upgrade.svg

<svg viewBox="0 0 100 125" xmlns="http://www.w3.org/2000/svg" fill-rule="evenodd" clip-rule="evenodd" stroke-linejoin="round" stroke-miterlimit="2" fill="#F5F2ED"><path d="M32.71 45.65h6.66c2.919 0 5.32 2.402 5.32 5.32V74.1c0 2.913 2.397 5.31 5.31 5.31s5.31-2.397 5.31-5.31V51c0-2.918 2.402-5.32 5.32-5.32h6.682c2.913 0 5.31-2.397 5.31-5.31a5.31 5.31 0 0 0-.732-2.69L54.6 7.74A5.316 5.316 0 0 0 50 5.083a5.316 5.316 0 0 0-4.6 2.657L28.11 37.68a5.308 5.308 0 0 0-.714 2.66c0 2.913 2.397 5.31 5.31 5.31h.004zM73 88.54H27a3.203 3.203 0 0 0-3.011 3.185A3.203 3.203 0 0 0 27 94.91h46a3.203 3.203 0 0 0 3.011-3.185A3.203 3.203 0 0 0 73 88.54z" fill-rule="nonzero"/></svg>

<?xml version="1.0" encoding="UTF-8" standalone="no"?>
<!DOCTYPE svg PUBLIC "-//W3C//DTD SVG 1.1//EN" "http://www.w3.org/Graphics/SVG/1.1/DTD/svg11.dtd">
<svg width="100%" height="100%" viewBox="0 0 100 125" version="1.1" xmlns="http://www.w3.org/2000/svg" xmlns:xlink="http://www.w3.org/1999/xlink" xml:space="preserve" xmlns:serif="http://www.serif.com/" style="fill-rule:evenodd;clip-rule:evenodd;stroke-linejoin:round;stroke-miterlimit:2;fill:#F5F2ED;">
    <path d="M32.71,45.65L39.37,45.65C42.289,45.65 44.69,48.052 44.69,50.97C44.69,50.98 44.69,50.99 44.69,51L44.69,74.1C44.69,77.013 47.087,79.41 50,79.41C52.913,79.41 55.31,77.013 55.31,74.1L55.31,51C55.31,48.082 57.712,45.68 60.63,45.68L67.29,45.68C67.297,45.68 67.305,45.68 67.312,45.68C70.225,45.68 72.622,43.283 72.622,40.37C72.622,39.424 72.369,38.495 71.89,37.68L54.6,7.74C53.653,6.098 51.896,5.083 50,5.083C48.104,5.083 46.347,6.098 45.4,7.74L28.11,37.68C27.642,38.488 27.396,39.406 27.396,40.34C27.396,43.253 29.793,45.65 32.706,45.65C32.707,45.65 32.709,45.65 32.71,45.65Z" style="fill-rule:nonzero;"/>
    <path d="M73,88.54L27,88.54C25.32,88.634 23.989,90.042 23.989,91.725C23.989,93.408 25.32,94.816 27,94.91L73,94.91C74.68,94.816 76.011,93.408 76.011,91.725C76.011,90.042 74.68,88.634 73,88.54Z" style="fill-rule:nonzero;"/>
</svg>
